icons/2_Variations/Auth0 bg.var.svg

<svg width="1024" height="1024" fill="none" xmlns="http://www.w3.org/2000/svg"><g clip-path="url(#a)"><path d="M512 1024c282.77 0 512-229.23 512-512S794.77 0 512 0 0 229.23 0 512s229.23 512 512 512Z" fill="#ABABFF"/><path d="m681.88 280 52.93 164.08H564.56l-52.49-162.71-52.49 162.71H289.33l52-164.08h340.55Zm52.93 164.08L597.2 542l52.93 165c88.21-64.43 117.32-162.35 84.68-262.92ZM374 707l52.93-165-137.6-97.92C256.69 544.65 284.91 642.57 374 707Zm275.23 0-137.6-99.72L374 707l137.62 97 137.61-97Z" fill="#fff"/></g><defs><clipPath id="a"><path fill="#fff" d="M0 0h1024v1024H0z"/></clipPath></defs></svg>

<svg width="1024" height="1024" viewBox="0 0 1024 1024" fill="none" xmlns="http://www.w3.org/2000/svg">
<g clip-path="url(#clip0_3_2)">
<path d="M512 1024C794.77 1024 1024 794.77 1024 512C1024 229.23 794.77 0 512 0C229.23 0 0 229.23 0 512C0 794.77 229.23 1024 512 1024Z" fill="#ABABFF"/>
<path d="M681.88 280L734.81 444.08H564.56L512.07 281.37L459.58 444.08H289.33L341.33 280H681.88ZM734.81 444.08L597.2 542L650.13 707C738.34 642.57 767.45 544.65 734.81 444.08ZM374 707L426.93 542L289.33 444.08C256.69 544.65 284.91 642.57 374 707ZM649.23 707L511.63 607.28L374 707L511.62 804L649.23 707Z" fill="white"/>
</g>
<defs>
<clipPath id="clip0_3_2">
<rect width="1024" height="1024" fill="white"/>
</clipPath>
</defs>
</svg>
